X: 68
T: Debka Magen
C: Toby David 1974
O: Israel
M: 2/4
L: 1/8
Q: 1/4=240
K: Am
P:A
%%MIDI program 72
|:edcz|cBdz |dcBc           |A2z2 |
  cBdz|czBz |AzBc           |A2z2 |
  cBAB|AGAz |AGBG           |E2z2 |
  cBAB|AGA2-|A4             |z4   :|
P:B
K: Em
|:gzgf|gfgf |azag           |fgez |
  gzgf|gfe2 |g/f/g/f/g/f/g/f/|e4   :|



